docs/img/site/5-0-0/social.svg

<?xml version="1.0" encoding="utf-8"?>
<!DOCTYPE svg PUBLIC "-//W3C//DTD SVG 1.1//EN" "http://www.w3.org/Graphics/SVG/1.1/DTD/svg11.dtd">
<svg version="1.1" xmlns="http://www.w3.org/2000/svg" xmlns:xlink="http://www.w3.org/1999/xlink" x="0px" y="0px"
	 width="50.333px" height="50.5px" viewBox="0 0 50.333 50.5" enable-background="new 0 0 50.333 50.5" xml:space="preserve">

<style>
g{
	display: none;
}
g:target{
	display: block;
}

</style>
    <g id="twitter">
        <path fill="#00acee" d="M48.932,12.746c-1.625,0.721-3.373,1.208-5.205,1.426c1.871-1.121,3.307-2.896,3.985-5.012
            c-1.751,1.039-3.69,1.792-5.755,2.198c-1.652-1.76-4.008-2.861-6.615-2.861c-5.004,0-9.063,4.058-9.063,9.062
            c0,0.71,0.081,1.401,0.236,2.065c-7.531-0.378-14.208-3.985-18.678-9.469c-0.779,1.338-1.227,2.896-1.227,4.556
            c0,3.144,1.601,5.918,4.031,7.542C9.158,22.206,7.76,21.8,6.539,21.119c-0.001,0.038-0.001,0.077-0.001,0.115
            c0,4.39,3.125,8.052,7.27,8.884c-0.76,0.207-1.561,0.318-2.387,0.318c-0.586,0-1.152-0.057-1.705-0.162
            c1.152,3.6,4.498,6.219,8.465,6.293c-3.103,2.432-7.009,3.879-11.256,3.879c-0.729,0-1.452-0.043-2.16-0.127
            c4.009,2.572,8.773,4.072,13.89,4.072c16.668,0,25.783-13.807,25.783-25.784c0-0.393-0.009-0.783-0.026-1.172
            C46.182,16.159,47.717,14.563,48.932,12.746L48.932,12.746z M48.932,12.746"/>
    </g>
    <g id="instagram">
        <path fill="#f11651" d="M35.506,1.925H14.777c-7.033,0-12.735,5.702-12.735,12.735V35.39c0,7.035,5.702,12.736,12.735,12.736
            h20.729c7.033,0,12.735-5.701,12.735-12.736V14.661C48.242,7.627,42.54,1.925,35.506,1.925z M44.508,35.337
            c0,5.002-4.054,9.055-9.055,9.055H14.83c-5.001,0-9.055-4.053-9.055-9.055V14.713c0-5.001,4.054-9.055,9.055-9.055h20.624
            c5.001,0,9.055,4.054,9.055,9.055V35.337z"/>
        <path fill="#f11651" d="M25.141,12.85c-6.724,0-12.175,5.451-12.175,12.176c0,6.723,5.451,12.174,12.175,12.174
            c6.725,0,12.176-5.451,12.176-12.174C37.317,18.301,31.866,12.85,25.141,12.85z M25.141,32.966c-4.386,0-7.94-3.555-7.94-7.939
            c0-4.386,3.555-7.942,7.94-7.942s7.941,3.556,7.941,7.942C33.083,29.411,29.527,32.966,25.141,32.966z"/>
        <circle fill="#f11651" cx="37.73" cy="12.446" r="2.731"/>
    </g>
    <g id="facebook">
        <path fill="#4267b2" d="M32.533,26.879h-6.745v21.705h-9.999V26.879h-4.755v-8.497h4.755v-5.499
            c0-3.932,1.868-10.089,10.089-10.089l7.406,0.032v8.248h-5.375c-0.881,0-2.121,0.44-2.121,2.316v5.001h7.618L32.533,26.879z
            M33.698,27.134"/>
    </g>
    <g id="youtube">
        <path fill-rule="evenodd" clip-rule="evenodd" fill="#ff0000" d="M47.254,16.748c0-3.684-2.983-6.668-6.666-6.668H9.319
            c-3.684,0-6.667,2.985-6.667,6.668v17.883c0,3.683,2.983,6.669,6.667,6.669h31.27c3.683,0,6.666-2.986,6.666-6.669V16.748z
            M20.493,33.234V16.438l12.738,8.396L20.493,33.234z M20.493,33.234"/>
    </g>
    <g id="discord">
        <svg fill="#515ff1" xmlns="http://www.w3.org/2000/svg"  viewBox="0 0 50 50" >
            <path d="M 41.625 10.769531 C 37.644531 7.566406 31.347656 7.023438 31.078125 7.003906 C 30.660156 6.96875 30.261719 7.203125 30.089844 7.589844 C 30.074219 7.613281 29.9375 7.929688 29.785156 8.421875 C 32.417969 8.867188 35.652344 9.761719 38.578125 11.578125 C 39.046875 11.867188 39.191406 12.484375 38.902344 12.953125 C 38.710938 13.261719 38.386719 13.429688 38.050781 13.429688 C 37.871094 13.429688 37.6875 13.378906 37.523438 13.277344 C 32.492188 10.15625 26.210938 10 25 10 C 23.789063 10 17.503906 10.15625 12.476563 13.277344 C 12.007813 13.570313 11.390625 13.425781 11.101563 12.957031 C 10.808594 12.484375 10.953125 11.871094 11.421875 11.578125 C 14.347656 9.765625 17.582031 8.867188 20.214844 8.425781 C 20.0625 7.929688 19.925781 7.617188 19.914063 7.589844 C 19.738281 7.203125 19.34375 6.960938 18.921875 7.003906 C 18.652344 7.023438 12.355469 7.566406 8.320313 10.8125 C 6.214844 12.761719 2 24.152344 2 34 C 2 34.175781 2.046875 34.34375 2.132813 34.496094 C 5.039063 39.605469 12.972656 40.941406 14.78125 41 C 14.789063 41 14.800781 41 14.8125 41 C 15.132813 41 15.433594 40.847656 15.621094 40.589844 L 17.449219 38.074219 C 12.515625 36.800781 9.996094 34.636719 9.851563 34.507813 C 9.4375 34.144531 9.398438 33.511719 9.765625 33.097656 C 10.128906 32.683594 10.761719 32.644531 11.175781 33.007813 C 11.234375 33.0625 15.875 37 25 37 C 34.140625 37 38.78125 33.046875 38.828125 33.007813 C 39.242188 32.648438 39.871094 32.683594 40.238281 33.101563 C 40.601563 33.515625 40.5625 34.144531 40.148438 34.507813 C 40.003906 34.636719 37.484375 36.800781 32.550781 38.074219 L 34.378906 40.589844 C 34.566406 40.847656 34.867188 41 35.1875 41 C 35.199219 41 35.210938 41 35.21875 41 C 37.027344 40.941406 44.960938 39.605469 47.867188 34.496094 C 47.953125 34.34375 48 34.175781 48 34 C 48 24.152344 43.785156 12.761719 41.625 10.769531 Z M 18.5 30 C 16.566406 30 15 28.210938 15 26 C 15 23.789063 16.566406 22 18.5 22 C 20.433594 22 22 23.789063 22 26 C 22 28.210938 20.433594 30 18.5 30 Z M 31.5 30 C 29.566406 30 28 28.210938 28 26 C 28 23.789063 29.566406 22 31.5 22 C 33.433594 22 35 23.789063 35 26 C 35 28.210938 33.433594 30 31.5 30 Z"/>
        </svg>
    </g>
</svg>

<svg xmlns="http://www.w3.org/2000/svg" xmlns:xlink="http://www.w3.org/1999/xlink" width="50.333" height="50.5" viewBox="0 0 50.333 50.5"><style>g{ display: none; } g:target{ display: block; }</style><g id="twitter"><path fill="#00acee" d="M48.932 12.746a18.084 18.084 0 01-5.205 1.426 9.091 9.091 0 003.985-5.012 18.116 18.116 0 01-5.755 2.198 9.052 9.052 0 00-6.615-2.861c-5.004 0-9.063 4.058-9.063 9.062 0 .71.081 1.401.236 2.065-7.531-.378-14.208-3.985-18.678-9.469a9.032 9.032 0 00-1.227 4.556 9.059 9.059 0 004.031 7.542 8.993 8.993 0 01-4.102-1.134l-.001.115c0 4.39 3.125 8.052 7.27 8.884a9.075 9.075 0 01-4.092.156 9.07 9.07 0 008.465 6.293 18.178 18.178 0 01-11.256 3.879c-.729 0-1.452-.043-2.16-.127a25.637 25.637 0 0013.89 4.072c16.668 0 25.783-13.807 25.783-25.784 0-.393-.009-.783-.026-1.172a18.388 18.388 0 004.52-4.689zm0 0"/></g><g id="instagram"><path fill="#f11651" d="M35.506 1.925H14.777c-7.033 0-12.735 5.702-12.735 12.735v20.73c0 7.035 5.702 12.736 12.735 12.736h20.729c7.033 0 12.735-5.701 12.735-12.736V14.661c.001-7.034-5.701-12.736-12.735-12.736zm9.002 33.412a9.054 9.054 0 01-9.055 9.055H14.83a9.054 9.054 0 01-9.055-9.055V14.713a9.055 9.055 0 019.055-9.055h20.624a9.055 9.055 0 019.055 9.055v20.624z"/><path fill="#f11651" d="M25.141 12.85c-6.724 0-12.175 5.451-12.175 12.176 0 6.723 5.451 12.174 12.175 12.174 6.725 0 12.176-5.451 12.176-12.174 0-6.725-5.451-12.176-12.176-12.176zm0 20.116a7.941 7.941 0 11.002-15.88 7.941 7.941 0 01-.002 15.88z"/><circle fill="#f11651" cx="37.73" cy="12.446" r="2.731"/></g><g id="facebook"><path fill="#4267b2" d="M32.533 26.879h-6.745v21.705h-9.999V26.879h-4.755v-8.497h4.755v-5.499c0-3.932 1.868-10.089 10.089-10.089l7.406.032v8.248h-5.375c-.881 0-2.121.44-2.121 2.316v5.001h7.618l-.873 8.488zm1.165.255"/></g><g id="youtube"><path fill-rule="evenodd" clip-rule="evenodd" fill="red" d="M47.254 16.748a6.665 6.665 0 00-6.666-6.668H9.319a6.666 6.666 0 00-6.667 6.668v17.883A6.667 6.667 0 009.319 41.3h31.27a6.667 6.667 0 006.666-6.669V16.748zM20.493 33.234V16.438l12.738 8.396-12.738 8.4zm0 0"/></g><g id="discord"><svg fill="#515ff1" xmlns="http://www.w3.org/2000/svg" viewBox="0 0 50 50"><path d="M41.625 10.77c-3.98-3.204-10.277-3.747-10.547-3.766a.992.992 0 00-.988.586 6.63 6.63 0 00-.305.832c2.633.445 5.867 1.34 8.793 3.156a1 1 0 11-1.055 1.7C32.493 10.155 26.211 10 25 10c-1.21 0-7.496.156-12.523 3.277a1 1 0 01-1.055-1.7c2.926-1.811 6.16-2.71 8.793-3.151-.152-.496-.29-.809-.3-.836a.987.987 0 00-.993-.586c-.27.02-6.567.562-10.602 3.809C6.215 12.761 2 24.152 2 34c0 .176.047.344.133.496 2.906 5.11 10.84 6.445 12.648 6.504h.031a1 1 0 00.81-.41l1.827-2.516c-4.933-1.273-7.453-3.437-7.597-3.566a1 1 0 011.324-1.5C11.234 33.063 15.875 37 25 37c9.14 0 13.781-3.953 13.828-3.992a1 1 0 011.41.094.996.996 0 01-.09 1.406c-.144.129-2.664 2.293-7.597 3.566l1.828 2.516a1 1 0 00.809.41h.03c1.81-.059 9.743-1.395 12.65-6.504A1.01 1.01 0 0048 34c0-9.848-4.215-21.238-6.375-23.23zM18.5 30c-1.934 0-3.5-1.79-3.5-4s1.566-4 3.5-4 3.5 1.79 3.5 4-1.566 4-3.5 4zm13 0c-1.934 0-3.5-1.79-3.5-4s1.566-4 3.5-4 3.5 1.79 3.5 4-1.566 4-3.5 4z"/></svg></g></svg>
